assets/logos/instagram.svg

<svg width="80" height="80" viewBox="0 0 80 80" fill="none" xmlns="http://www.w3.org/2000/svg">
<path d="M24.2287 71.7737C20.4226 71.6006 18.355 70.9672 16.9798 70.4308C15.1576 69.7213 13.8585 68.8767 12.4909 67.511C11.1233 66.1453 10.2768 64.8462 9.57114 63.024C9.03474 61.6488 8.40134 59.5812 8.22825 55.7751C8.03804 51.6608 8 50.4264 8 40.0029C8 29.5793 8.04185 28.3468 8.22635 24.2287C8.39944 20.4226 9.03665 18.3588 9.56923 16.9798C10.2787 15.1576 11.1252 13.8585 12.489 12.489C13.8547 11.1233 15.1538 10.2749 16.9779 9.56923C18.3531 9.03284 20.4207 8.39944 24.2268 8.22635C28.343 8.03804 29.5793 8 39.9991 8C50.4226 8 51.6551 8.04185 55.7732 8.22635C59.5793 8.39944 61.6431 9.03665 63.0221 9.56923C64.8443 10.2749 66.1434 11.1233 67.511 12.489C68.8787 13.8547 69.7213 15.1557 70.4308 16.9779C70.9672 18.3531 71.6006 20.4207 71.7737 24.2268C71.962 28.3449 72 29.5774 72 40.0009C72 50.4207 71.962 51.657 71.7737 55.7751C71.6006 59.5812 70.9634 61.6488 70.4308 63.024C69.7213 64.8462 68.8767 66.1453 67.511 67.511C66.1453 68.8767 64.8443 69.7213 63.0221 70.4308C61.6469 70.9672 59.5793 71.6006 55.7732 71.7737C51.6589 71.962 50.4226 72 39.9991 72C29.5793 72 28.343 71.9639 24.2287 71.7737Z" fill="url(#paint0_radial_9912_1412)"/>
<path d="M24.2287 71.7737C20.4226 71.6006 18.355 70.9672 16.9798 70.4308C15.1576 69.7213 13.8585 68.8767 12.4909 67.511C11.1233 66.1453 10.2768 64.8462 9.57114 63.024C9.03474 61.6488 8.40134 59.5812 8.22825 55.7751C8.03804 51.6608 8 50.4264 8 40.0029C8 29.5793 8.04185 28.3468 8.22635 24.2287C8.39944 20.4226 9.03665 18.3588 9.56923 16.9798C10.2787 15.1576 11.1252 13.8585 12.489 12.489C13.8547 11.1233 15.1538 10.2749 16.9779 9.56923C18.3531 9.03284 20.4207 8.39944 24.2268 8.22635C28.343 8.03804 29.5793 8 39.9991 8C50.4226 8 51.6551 8.04185 55.7732 8.22635C59.5793 8.39944 61.6431 9.03665 63.0221 9.56923C64.8443 10.2749 66.1434 11.1233 67.511 12.489C68.8787 13.8547 69.7213 15.1557 70.4308 16.9779C70.9672 18.3531 71.6006 20.4207 71.7737 24.2268C71.962 28.3449 72 29.5774 72 40.0009C72 50.4207 71.962 51.657 71.7737 55.7751C71.6006 59.5812 70.9634 61.6488 70.4308 63.024C69.7213 64.8462 68.8767 66.1453 67.511 67.511C66.1453 68.8767 64.8443 69.7213 63.0221 70.4308C61.6469 70.9672 59.5793 71.6006 55.7732 71.7737C51.6589 71.962 50.4226 72 39.9991 72C29.5793 72 28.343 71.9639 24.2287 71.7737Z" fill="url(#paint1_radial_9912_1412)"/>
<path d="M32.1425 40.1364C32.1425 35.7594 35.6897 32.2103 40.0667 32.2103C44.4436 32.2103 47.9927 35.7594 47.9927 40.1364C47.9927 44.5133 44.4436 48.0624 40.0667 48.0624C35.6897 48.0624 32.1425 44.5133 32.1425 40.1364ZM27.8578 40.1364C27.8578 46.8793 33.3237 52.3452 40.0667 52.3452C46.8096 52.3452 52.2755 46.8793 52.2755 40.1364C52.2755 33.3934 46.8096 27.9275 40.0667 27.9275C33.3237 27.9275 27.858 33.393 27.858 40.1364H27.8578ZM49.9059 27.4435C49.9056 28.0078 50.0727 28.5594 50.3861 29.0288C50.6994 29.4981 51.1448 29.864 51.6661 30.0801C52.1874 30.2963 52.761 30.353 53.3145 30.2431C53.868 30.1333 54.3765 29.8617 54.7757 29.4629C55.1749 29.064 55.4468 28.5558 55.5571 28.0023C55.6674 27.4489 55.6112 26.8752 55.3954 26.3538C55.1797 25.8324 54.8142 25.3866 54.3451 25.0729C53.876 24.7592 53.3245 24.5917 52.7602 24.5914H52.759C52.0026 24.5918 51.2773 24.8924 50.7423 25.4271C50.2074 25.9618 49.9065 26.6871 49.9059 27.4435ZM30.4611 59.4898C28.143 59.3843 26.883 58.9982 26.0457 58.6719C24.9356 58.2398 24.1436 57.7251 23.3109 56.8935C22.4781 56.0619 21.9627 55.2706 21.5324 54.1605C21.206 53.3236 20.8199 52.0633 20.7145 49.7452C20.5992 47.239 20.5762 46.4861 20.5762 40.1367C20.5762 33.7873 20.6011 33.0366 20.7145 30.5283C20.8201 28.2102 21.209 26.9523 21.5324 26.1129C21.9646 25.0029 22.4793 24.2108 23.3109 23.3781C24.1425 22.5454 24.9337 22.0299 26.0457 21.5996C26.8826 21.2732 28.143 20.8871 30.4611 20.7817C32.9673 20.6665 33.7201 20.6434 40.0667 20.6434C46.4132 20.6434 47.1668 20.668 49.6751 20.7821C51.9932 20.8877 53.2511 21.2767 54.0905 21.6C55.2005 22.0303 55.9926 22.5469 56.8253 23.3785C57.6581 24.2101 58.1716 25.0033 58.6038 26.1133C58.9302 26.9502 59.3163 28.2106 59.4217 30.5287C59.537 33.037 59.56 33.7877 59.56 40.1371C59.56 46.4865 59.537 47.2373 59.4217 49.7456C59.3161 52.0637 58.9281 53.3236 58.6038 54.1609C58.1716 55.271 57.6569 56.063 56.8253 56.8939C55.9937 57.7247 55.2005 58.2402 54.0905 58.6723C53.2536 58.9987 51.9932 59.3849 49.6751 59.4902C47.1689 59.6055 46.4161 59.6285 40.0667 59.6285C33.7173 59.6285 32.9665 59.6055 30.4611 59.4902V59.4898ZM30.2642 16.5041C27.7331 16.6194 26.0035 17.0207 24.493 17.6085C22.9297 18.2154 21.6045 19.0297 20.2812 20.3509C18.9579 21.6721 18.1457 22.9975 17.5388 24.5627C16.951 26.0741 16.5497 27.8028 16.4344 30.3339C16.3172 32.869 16.2904 33.6795 16.2904 40.1364C16.2904 46.5932 16.3172 47.4037 16.4344 49.9388C16.5497 52.4701 16.951 54.1986 17.5388 55.71C18.1457 57.2733 18.9581 58.6012 20.2812 59.9218C21.6043 61.2424 22.9278 62.0556 24.493 62.6643C26.0063 63.252 27.7331 63.6534 30.2642 63.7686C32.8006 63.8839 33.6098 63.9126 40.0667 63.9126C46.5235 63.9126 47.334 63.8858 49.8691 63.7686C52.4005 63.6534 54.1289 63.252 55.6403 62.6643C57.2037 62.0556 58.5288 61.243 59.8521 59.9218C61.1754 58.6006 61.9859 57.2733 62.5946 55.71C63.1823 54.1986 63.5856 52.47 63.6989 49.9388C63.8142 47.4018 63.841 46.5932 63.841 40.1364C63.841 33.6795 63.8142 32.869 63.6989 30.3339C63.5837 27.8026 63.1823 26.0732 62.5946 24.5627C61.9859 22.9994 61.1733 21.6742 59.8521 20.3509C58.5309 19.0276 57.2036 18.2154 55.6422 17.6085C54.1289 17.0207 52.4003 16.6175 49.8711 16.5041C47.3356 16.3883 46.5254 16.3601 40.0695 16.3601C33.6136 16.3601 32.8016 16.3869 30.2651 16.5041" fill="white"/>
<defs>
<radialGradient id="paint0_radial_9912_1412" cx="0" cy="0" r="1" gradientUnits="userSpaceOnUse" gradientTransform="translate(12.142 70.598) scale(81.2562)">
<stop offset="0.09" stop-color="#FA8F21"/>
<stop offset="0.78" stop-color="#D82D7E"/>
</radialGradient>
<radialGradient id="paint1_radial_9912_1412" cx="0" cy="0" r="1" gradientUnits="userSpaceOnUse" gradientTransform="translate(52.3306 68.5429) scale(71.5063)">
<stop offset="0.64" stop-color="#8C3AAA" stop-opacity="0"/>
<stop offset="1" stop-color="#8C3AAA"/>
</radialGradient>
</defs>
</svg>

<svg xmlns="http://www.w3.org/2000/svg" width="80" height="80" fill="none" viewBox="0 0 80 80"><path fill="url(#a)" d="M24.229 71.774c-3.806-.173-5.874-.807-7.25-1.343-1.821-.71-3.12-1.554-4.488-2.92s-2.214-2.665-2.92-4.487c-.536-1.375-1.17-3.443-1.343-7.249C8.038 51.661 8 50.426 8 40.003s.042-11.656.226-15.774c.173-3.806.81-5.87 1.343-7.25.71-1.821 1.556-3.12 2.92-4.49 1.366-1.366 2.665-2.214 4.489-2.92 1.375-.536 3.443-1.17 7.249-1.343C28.343 8.038 29.579 8 39.999 8c10.424 0 11.656.042 15.774.226 3.806.173 5.87.81 7.25 1.343 1.821.706 3.12 1.554 4.488 2.92s2.21 2.667 2.92 4.489c.536 1.375 1.17 3.443 1.343 7.249.188 4.118.226 5.35.226 15.774 0 10.42-.038 11.656-.226 15.774-.173 3.806-.81 5.874-1.343 7.249-.71 1.822-1.554 3.121-2.92 4.487s-2.667 2.21-4.489 2.92c-1.375.536-3.443 1.17-7.249 1.343C51.66 71.962 50.423 72 40 72c-10.42 0-11.656-.036-15.77-.226"/><path fill="url(#b)" d="M24.229 71.774c-3.806-.173-5.874-.807-7.25-1.343-1.821-.71-3.12-1.554-4.488-2.92s-2.214-2.665-2.92-4.487c-.536-1.375-1.17-3.443-1.343-7.249C8.038 51.661 8 50.426 8 40.003s.042-11.656.226-15.774c.173-3.806.81-5.87 1.343-7.25.71-1.821 1.556-3.12 2.92-4.49 1.366-1.366 2.665-2.214 4.489-2.92 1.375-.536 3.443-1.17 7.249-1.343C28.343 8.038 29.579 8 39.999 8c10.424 0 11.656.042 15.774.226 3.806.173 5.87.81 7.25 1.343 1.821.706 3.12 1.554 4.488 2.92s2.21 2.667 2.92 4.489c.536 1.375 1.17 3.443 1.343 7.249.188 4.118.226 5.35.226 15.774 0 10.42-.038 11.656-.226 15.774-.173 3.806-.81 5.874-1.343 7.249-.71 1.822-1.554 3.121-2.92 4.487s-2.667 2.21-4.489 2.92c-1.375.536-3.443 1.17-7.249 1.343C51.66 71.962 50.423 72 40 72c-10.42 0-11.656-.036-15.77-.226"/><path fill="#fff" d="M32.143 40.136a7.925 7.925 0 1 1 15.85 0 7.925 7.925 0 1 1-15.85 0m-4.285 0c0 6.743 5.466 12.21 12.209 12.21s12.209-5.467 12.209-12.21-5.466-12.209-12.21-12.209c-6.742 0-12.208 5.466-12.208 12.21m22.048-12.693a2.852 2.852 0 1 0 2.854-2.852h-.001a2.855 2.855 0 0 0-2.853 2.852M30.46 59.49c-2.318-.106-3.578-.492-4.415-.818-1.11-.432-1.902-.947-2.735-1.778s-1.348-1.623-1.779-2.733c-.326-.837-.712-2.098-.817-4.416-.116-2.506-.139-3.259-.139-9.608s.025-7.1.139-9.609c.105-2.318.494-3.576.817-4.415.433-1.11.947-1.902 1.779-2.735.831-.833 1.623-1.348 2.735-1.778.837-.327 2.097-.713 4.415-.818 2.506-.116 3.26-.139 9.606-.139s7.1.025 9.608.14c2.318.105 3.576.494 4.416.817 1.11.43 1.902.947 2.734 1.778s1.347 1.625 1.779 2.735c.326.837.712 2.098.818 4.416.115 2.508.138 3.259.138 9.608s-.023 7.1-.138 9.609c-.106 2.318-.494 3.578-.818 4.415-.432 1.11-.947 1.902-1.779 2.733-.831.83-1.625 1.346-2.735 1.778-.836.327-2.097.713-4.415.818-2.506.115-3.259.139-9.608.139s-7.1-.023-9.606-.139m-.197-42.986c-2.53.115-4.26.517-5.771 1.104-1.563.607-2.888 1.422-4.212 2.743s-2.135 2.646-2.742 4.212c-.588 1.511-.99 3.24-1.105 5.77-.117 2.536-.144 3.346-.144 9.803s.027 7.268.144 9.803c.116 2.531.517 4.26 1.105 5.771.607 1.563 1.42 2.891 2.742 4.212s2.647 2.134 4.212 2.742c1.513.588 3.24.99 5.771 1.105 2.537.115 3.346.144 9.803.144 6.456 0 7.267-.027 9.802-.144 2.532-.116 4.26-.517 5.771-1.105 1.564-.608 2.889-1.421 4.212-2.742s2.134-2.649 2.743-4.212c.587-1.511.99-3.24 1.104-5.771.115-2.537.142-3.346.142-9.803s-.027-7.267-.142-9.802c-.115-2.531-.517-4.26-1.104-5.771-.61-1.564-1.422-2.889-2.743-4.212s-2.648-2.136-4.21-2.742c-1.513-.588-3.242-.992-5.77-1.105-2.536-.116-3.347-.144-9.803-.144-6.455 0-7.267.027-9.804.144"/><defs><radialGradient id="a" cx="0" cy="0" r="1" gradientTransform="translate(12.142 70.598)scale(81.2562)" gradientUnits="userSpaceOnUse"><stop offset=".09" stop-color="#fa8f21"/><stop offset=".78" stop-color="#d82d7e"/></radialGradient><radialGradient id="b" cx="0" cy="0" r="1" gradientTransform="translate(52.33 68.543)scale(71.5063)" gradientUnits="userSpaceOnUse"><stop offset=".64" stop-color="#8c3aaa" stop-opacity="0"/><stop offset="1" stop-color="#8c3aaa"/></radialGradient></defs></svg>
